X:16754
T:I Won't Be A Nun 16754
N:tune id: 3822; setting id: 16754
Z:ceolachan
S:thesession.org
R:march
M:4/4
K:Dmajor
|:D>E|FA d>e d2 cB|AF F>G F2 ED|(3FGA dB AF DF|EF/E/ EF/E/ EF/E/ D>E|
(3FGA de d>e f/e/d/c/|B/A/F FG FG/F/ ED|FA dB AF EC|D2 D>C D2:|
|:A/B/c/d/|ec A>B A2 A/B/d/e/|fd B>c B2 de|fd ec dB AF|FE E>F E2 D>E|
FA d>e d2 f/e/d/c/|BA F>E F2 FE/D/|FA dc/B/ AF EC|D2 D>C D2:|
|:de/f/|g(3f/g/f/ e>c d(3B/c/B/ A>G|FD/F/ A/D/(3F/G/A/ d2 de/f/|gf ec dB AF|(3FGA D>F EF/E/ D>E|
FG/A/ d>c d>e f/>e/d/c/|BA FG F2 E>D|F/G/A dF AF EF|D2 D>C D2:|


